packages/foundations/assets/icons/functional/images/communication/speech_bubble_exclamation_mark_12_filled.svg

<svg width="12" height="12" viewBox="0 0 12 12" fill="none" xmlns="http://www.w3.org/2000/svg">
<g clip-path="url(#clip0_2204_2316)">
<path fill-rule="evenodd" clip-rule="evenodd" d="M9.34118 1.20001C10.1647 1.20001 10.8 1.87903 10.8 2.69855V7.49855C10.8 8.31807 10.1294 8.99709 9.29414 8.99709H3.97648C3.89414 8.99709 3.82354 9.03222 3.76475 9.09072L2.22358 10.6244C2.10595 10.7415 1.95295 10.8 1.81182 10.8C1.50595 10.8 1.20001 10.5542 1.20001 10.1912V2.69855C1.20001 1.87903 1.91771 1.20001 2.75299 1.20001H9.34118ZM6.00319 6.00001C5.64789 6.00001 5.34001 6.29344 5.34001 6.66909C5.34001 7.04474 5.64789 7.35001 6.00319 7.35001C6.38213 7.35001 6.69001 7.04474 6.69001 6.66909C6.69001 6.29344 6.38213 6.00001 6.00319 6.00001ZM6.60001 2.40001H5.40001V5.39709H6.60001V2.40001Z" fill="#1A1C1F"/>
</g>
<defs>
<clipPath id="clip0_2204_2316">
<rect width="12" height="12" fill="white"/>
</clipPath>
</defs>
</svg>

<svg xmlns="http://www.w3.org/2000/svg" width="12" height="12" fill="none"><g clip-path="url(#a)"><path fill="#1A1C1F" fill-rule="evenodd" d="M9.341 1.2c.824 0 1.459.679 1.459 1.499v4.8c0 .82-.67 1.498-1.506 1.498H3.976a.3.3 0 0 0-.211.094l-1.541 1.533a.6.6 0 0 1-.412.176.613.613 0 0 1-.612-.609V2.7c0-.82.718-1.499 1.553-1.499zM6.003 6a.67.67 0 0 0-.663.67c0 .375.308.68.663.68a.684.684 0 0 0 .687-.68.674.674 0 0 0-.687-.67M6.6 2.4H5.4v2.997h1.2z" clip-rule="evenodd"/></g><defs><clipPath id="a"><path fill="#fff" d="M0 0h12v12H0z"/></clipPath></defs></svg>
